sass/icons/active-symbols/volatility/boom150 index/boom150 index.svg

<svg width="32" height="32" viewBox="0 0 32 32" fill="none" xmlns="http://www.w3.org/2000/svg">
<path d="M14.9625 6.72801C14.8398 6.96267 14.6185 7.08001 14.2985 7.08001C13.9785 7.08001 13.7571 6.96267 13.6345 6.72801C13.5118 6.49334 13.4505 6.16267 13.4505 5.73601V4.68001C13.4505 4.25334 13.5118 3.92267 13.6345 3.68801C13.7571 3.45334 13.9785 3.33601 14.2985 3.33601C14.6185 3.33601 14.8398 3.45334 14.9625 3.68801C15.0851 3.92267 15.1465 4.25334 15.1465 4.68001V5.73601C15.1465 6.16267 15.0851 6.49334 14.9625 6.72801Z" fill="#414652"/>
<path fill-rule="evenodd" clip-rule="evenodd" d="M2 0C0.895431 0 0 0.89543 0 2V8C0 9.10457 0.895431 10 2 10H17C18.1046 10 19 9.10457 19 8V2C19 0.895431 18.1046 0 17 0H2ZM12.6745 7.33601C13.0265 7.84267 13.5678 8.09601 14.2985 8.09601C15.0291 8.09601 15.5705 7.84267 15.9225 7.33601C16.2745 6.82934 16.4505 6.12001 16.4505 5.20801C16.4505 4.29601 16.2745 3.58667 15.9225 3.08001C15.5705 2.57334 15.0291 2.32001 14.2985 2.32001C13.5678 2.32001 13.0265 2.57334 12.6745 3.08001C12.3225 3.58667 12.1465 4.29601 12.1465 5.20801C12.1465 6.12001 12.3225 6.82934 12.6745 7.33601ZM3.05672 8.00001V7.03201H4.56072V3.28801H4.48872L3.35272 4.77601L2.58472 4.17601L3.92072 2.41601H5.76072V7.03201H6.94472V8.00001H3.05672ZM11.2776 3.46401H8.74159L8.62159 5.23201H8.68559C8.73892 5.09867 8.79759 4.97867 8.86159 4.87201C8.93093 4.76001 9.01093 4.66667 9.10159 4.59201C9.19226 4.51201 9.30159 4.45067 9.42959 4.40801C9.55759 4.36534 9.70959 4.34401 9.88559 4.34401C10.1256 4.34401 10.3496 4.38401 10.5576 4.46401C10.7656 4.54401 10.9469 4.66134 11.1016 4.81601C11.2563 4.96534 11.3789 5.15201 11.4696 5.37601C11.5603 5.59467 11.6056 5.84267 11.6056 6.12001C11.6056 6.40267 11.5576 6.66667 11.4616 6.91201C11.3709 7.15201 11.2323 7.36001 11.0456 7.53601C10.8643 7.71201 10.6403 7.85067 10.3736 7.95201C10.1069 8.04801 9.80293 8.09601 9.46159 8.09601C9.18959 8.09601 8.94959 8.06668 8.74159 8.00801C8.53359 7.94934 8.34959 7.87201 8.18959 7.77601C8.02959 7.67467 7.89093 7.56001 7.77359 7.43201C7.65626 7.30401 7.55493 7.16801 7.46959 7.02401L8.34159 6.33601C8.46426 6.55467 8.61093 6.74134 8.78159 6.89601C8.95226 7.04534 9.18159 7.12001 9.46959 7.12001C9.75759 7.12001 9.97359 7.03734 10.1176 6.87201C10.2669 6.70667 10.3416 6.48801 10.3416 6.21601V6.15201C10.3416 5.89601 10.2669 5.69334 10.1176 5.54401C9.96826 5.39467 9.76293 5.32001 9.50159 5.32001C9.28292 5.32001 9.10159 5.36534 8.95759 5.45601C8.81893 5.54134 8.71226 5.62667 8.63759 5.71201L7.65359 5.57601L7.86159 2.41601H11.2776V3.46401Z" fill="#414652"/>
<path d="M3.05672 8.00001V7.03201H4.56072V3.28801H4.48872L3.35272 4.77601L2.58472 4.17601L3.92072 2.41601H5.76072V7.03201H6.94472V8.00001H3.05672Z" fill="white"/>
<path d="M11.2776 3.46401H8.74159L8.62159 5.23201H8.68559C8.73892 5.09867 8.79759 4.97867 8.86159 4.87201C8.93093 4.76001 9.01093 4.66667 9.10159 4.59201C9.19226 4.51201 9.30159 4.45067 9.42959 4.40801C9.55759 4.36534 9.70959 4.34401 9.88559 4.34401C10.1256 4.34401 10.3496 4.38401 10.5576 4.46401C10.7656 4.54401 10.9469 4.66134 11.1016 4.81601C11.2563 4.96534 11.3789 5.15201 11.4696 5.37601C11.5603 5.59467 11.6056 5.84267 11.6056 6.12001C11.6056 6.40267 11.5576 6.66667 11.4616 6.91201C11.3709 7.15201 11.2323 7.36001 11.0456 7.53601C10.8643 7.71201 10.6403 7.85067 10.3736 7.95201C10.1069 8.04801 9.80293 8.09601 9.46159 8.09601C9.18959 8.09601 8.94959 8.06668 8.74159 8.00801C8.53359 7.94934 8.34959 7.87201 8.18959 7.77601C8.02959 7.67467 7.89093 7.56001 7.77359 7.43201C7.65626 7.30401 7.55493 7.16801 7.46959 7.02401L8.34159 6.33601C8.46426 6.55467 8.61093 6.74134 8.78159 6.89601C8.95226 7.04534 9.18159 7.12001 9.46959 7.12001C9.75759 7.12001 9.97359 7.03734 10.1176 6.87201C10.2669 6.70667 10.3416 6.48801 10.3416 6.21601V6.15201C10.3416 5.89601 10.2669 5.69334 10.1176 5.54401C9.96826 5.39467 9.76293 5.32001 9.50159 5.32001C9.28292 5.32001 9.10159 5.36534 8.95759 5.45601C8.81893 5.54134 8.71226 5.62667 8.63759 5.71201L7.65359 5.57601L7.86159 2.41601H11.2776V3.46401Z" fill="white"/>
<path d="M14.2985 8.09601C13.5678 8.09601 13.0265 7.84267 12.6745 7.33601C12.3225 6.82934 12.1465 6.12001 12.1465 5.20801C12.1465 4.29601 12.3225 3.58667 12.6745 3.08001C13.0265 2.57334 13.5678 2.32001 14.2985 2.32001C15.0291 2.32001 15.5705 2.57334 15.9225 3.08001C16.2745 3.58667 16.4505 4.29601 16.4505 5.20801C16.4505 6.12001 16.2745 6.82934 15.9225 7.33601C15.5705 7.84267 15.0291 8.09601 14.2985 8.09601ZM14.2985 7.08001C14.6185 7.08001 14.8398 6.96267 14.9625 6.72801C15.0851 6.49334 15.1465 6.16267 15.1465 5.73601V4.68001C15.1465 4.25334 15.0851 3.92267 14.9625 3.68801C14.8398 3.45334 14.6185 3.33601 14.2985 3.33601C13.9785 3.33601 13.7571 3.45334 13.6345 3.68801C13.5118 3.92267 13.4505 4.25334 13.4505 4.68001V5.73601C13.4505 6.16267 13.5118 6.49334 13.6345 6.72801C13.7571 6.96267 13.9785 7.08001 14.2985 7.08001Z" fill="white"/>
<path d="M0 17.4144L6.99995 24.4143L9.99995 21.4143L17 28.4143L20 25.4143L26 31.4143V28.5859L20 22.5859L17 25.5859L9.99995 18.5859L6.99995 21.5859L0 14.5859V17.4144Z" fill="#FF444F"/>
<path d="M27.0001 10L31.7072 14.7071L30.293 16.1213L28.0001 13.8284L28.0001 32H26.5858L26 31.4143L26.0001 13.8284L23.7072 16.1213L22.293 14.7071L27.0001 10Z" fill="#0AA0B0"/>
</svg>

<svg xmlns="http://www.w3.org/2000/svg" width="32" height="32" fill="none"><path fill="#414652" d="M14.963 6.728q-.184.352-.664.352t-.665-.352q-.183-.352-.184-.992V4.68q0-.64.184-.992.185-.352.665-.352.479 0 .664.352.184.352.184.992v1.056q0 .64-.184.992"/><path fill="#414652" fill-rule="evenodd" d="M2 0a2 2 0 0 0-2 2v6a2 2 0 0 0 2 2h15a2 2 0 0 0 2-2V2a2 2 0 0 0-2-2zm10.675 7.336q.527.76 1.624.76 1.095 0 1.624-.76.527-.76.528-2.128 0-1.368-.529-2.128-.528-.76-1.623-.76-1.096 0-1.624.76-.53.76-.529 2.128 0 1.368.528 2.128M3.057 8v-.968H4.56V3.288h-.072L3.353 4.776l-.768-.6 1.336-1.76h1.84v4.616h1.184V8zm8.22-4.536H8.743l-.12 1.768h.064q.08-.2.176-.36.103-.168.24-.28.136-.12.328-.184t.456-.064q.36 0 .672.12t.544.352a1.6 1.6 0 0 1 .368.56q.136.328.136.744 0 .425-.144.792-.137.36-.416.624a1.9 1.9 0 0 1-.672.416q-.4.144-.912.144a2.7 2.7 0 0 1-.72-.088 2.3 2.3 0 0 1-.552-.232 2 2 0 0 1-.416-.344 2.5 2.5 0 0 1-.304-.408l.872-.688q.183.328.44.56.255.224.688.224t.648-.248q.224-.248.224-.656v-.064q0-.384-.224-.608-.225-.225-.616-.224-.329 0-.544.136-.21.127-.32.256l-.984-.136.208-3.16h3.416z" clip-rule="evenodd"/><path fill="#fff" d="M3.057 8v-.968H4.56V3.288h-.072L3.353 4.776l-.768-.6 1.336-1.76h1.84v4.616h1.184V8zM11.278 3.464H8.742l-.12 1.768h.064q.08-.2.176-.36.103-.168.24-.28.136-.12.328-.184t.456-.064q.36 0 .672.12t.544.352a1.6 1.6 0 0 1 .368.56q.136.328.136.744 0 .425-.144.792-.137.36-.416.624a1.9 1.9 0 0 1-.672.416q-.4.144-.912.144a2.7 2.7 0 0 1-.72-.088 2.3 2.3 0 0 1-.552-.232 2 2 0 0 1-.416-.344 2.5 2.5 0 0 1-.304-.408l.872-.688q.183.328.44.56.255.224.688.224t.648-.248q.224-.248.224-.656v-.064q0-.384-.224-.608-.225-.225-.616-.224-.329 0-.544.136-.21.127-.32.256l-.984-.136.208-3.16h3.416zM14.299 8.096q-1.096 0-1.624-.76-.53-.76-.529-2.128 0-1.368.528-2.128.529-.76 1.625-.76 1.095 0 1.624.76.527.76.528 2.128 0 1.368-.529 2.128-.528.76-1.623.76m0-1.016q.479 0 .664-.352.184-.352.184-.992V4.68q0-.64-.184-.992t-.664-.352-.665.352q-.183.352-.184.992v1.056q0 .64.184.992.185.352.665.352"/><path fill="#FF444F" d="m0 17.414 7 7 3-3 7 7 3-3 6 6v-2.828l-6-6-3 3-7-7-3 3-7-7z"/><path fill="#0AA0B0" d="m27 10 4.707 4.707-1.414 1.414L28 13.828V32h-1.414L26 31.414V13.828l-2.293 2.293-1.414-1.414z"/></svg>
